src/main/resources/icons/DatabaseIcons/icons/toolwindowDatabaseChanges.svg

<svg xmlns="http://www.w3.org/2000/svg" width="13" height="13" viewBox="0 0 13 13">
  <g fill="none" fill-rule="evenodd">
    <path fill="#6E6E6E" d="M10,6.03944385 C9.04905946,6.27327869 7.82962919,6.41376151 6.5,6.41376151 C3.46243388,6.41376151 1,5.68057644 1,4.77614683 C1,4.65790961 1,4.23495495 1,3.50728282 C2.21656017,4.20871409 4.22647384,4.66697249 6.5,4.66697249 C8.77352616,4.66697249 10.7834398,4.20871409 12,3.50728282 C12,4.2164002 12,4.63935487 12,4.77614683 C12,5.26289587 11.2867772,5.70004539 10.1545245,6 L10,6 L10,6.03944385 Z M1,6.34581483 C1.92801888,6.88088204 3.31768814,7.27444759 4.93386411,7.43103841 C4.53608719,7.90529615 4.24630732,8.47319464 4.10237415,9.09688421 C2.26605102,8.84456773 1,8.31144022 1,7.69456284 C1,7.57462201 1,7.12503933 1,6.34581483 Z M4.59434065,12.099034 C2.4960194,11.868257 1,11.2673398 1,10.5623853 L1,9.18434683 C1.744357,9.61352024 2.78571787,9.95165821 4.00274187,10.149494 C4.02895238,10.8628711 4.24197726,11.5285431 4.59434065,12.099034 Z M6.5,3.57522937 C3.46243388,3.57522937 1,2.8420443 1,1.93761469 C1,1.03318508 3.46243388,0.300000012 6.5,0.300000012 C9.53756612,0.300000012 12,1.03318508 12,1.93761469 C12,2.8420443 9.53756612,3.57522937 6.5,3.57522937 Z"/>
    <g fill="#6E6E6E" transform="rotate(45 -1.06 14.51)">
      <rect width="1.6" height="6" x="2.4"/>
      <rect width="3.8" height="1.6" x=".2" y="5"/>
    </g>
  </g>
</svg>

<svg xmlns="http://www.w3.org/2000/svg" width="13" height="13" viewBox="0 0 13 13"><rect id="frame" width="13" height="13" fill="none"/><g fill="#6E6E6E" fill-rule="evenodd"><path d="M10 6.04c-.95.233-2.17.374-3.5.374-3.038 0-5.5-.733-5.5-1.638V3.507c1.217.702 3.226 1.16 5.5 1.16s4.283-.458 5.5-1.16v1.27c0 .486-.713.923-1.845 1.223H10v.04zm-9 .306c.928.535 2.318.928 3.934 1.085a3.987 3.987 0 0 0-.832 1.666C2.266 8.845 1 8.31 1 7.695v-1.35zm3.594 5.753C2.496 11.869 1 11.267 1 10.562V9.184c.744.43 1.786.768 3.003.965.026.714.239 1.38.591 1.95zM6.5 3.575c-3.038 0-5.5-.733-5.5-1.637C1 1.033 3.462.3 6.5.3s5.5.733 5.5 1.638c0 .904-2.462 1.637-5.5 1.637z"/><path d="M11.647 6.696l1.131 1.132-4.243 4.242-1.13-1.13z"/><path d="M6.556 8.676l2.687 2.687-1.132 1.132-2.687-2.687z"/></g></svg>
